src/images/v2/milvus-logo-mobile.svg

<svg fill="none" height="37" viewBox="0 0 53 37" width="53" xmlns="http://www.w3.org/2000/svg"><g fill="#12c3f4"><path d="m32.1195 2.94877c-3.9175-3.931695-10.27-3.931695-14.1875 0l-6.403 6.42608c-.3785.38028-.3785.99255 0 1.37285l6.403 6.4261c3.9175 3.9317 10.27 3.9317 14.1875.0064 3.9238-3.9252 3.9238-10.29973 0-14.23143zm-1.514 12.34293c-2.8767 2.8876-7.5448 2.8876-10.4214 0l-4.7124-4.7245c-.2776-.2771-.2776-.72828 0-1.01188l4.706-4.71804c2.8767-2.88754 7.5448-2.88754 10.4214 0 2.883 2.88754 2.883 7.56692.0064 10.45442z"/><path d="m40.5093 9.3813-2.8198-2.8811c-.1703-.17403-.4542-.01289-.3974.22559.4857 2.19788.4857 4.49241 0 6.69031-.0505.2385.2334.3932.3974.2256l2.8198-2.8811c.3722-.3867.3722-.99903 0-1.3793z"/><path d="m25.4263 15.1177c2.7279 0 4.9394-2.2595 4.9394-5.0467 0-2.78726-2.2115-5.04677-4.9394-5.04677-2.728 0-4.9395 2.25951-4.9395 5.04677 0 2.7872 2.2115 5.0467 4.9395 5.0467z"/><path d="m0 31.5029c0-.5368.0905757-.9995.271728-1.3882.181152-.3887.434764-.7218.760842-.9994.32607-.2777.70649-.4813 1.14125-.6108.43477-.1296.92388-.2036 1.4311-.2036.63403 0 1.19561.111 1.70283.3331.48911.2221.90576.5183 1.21372.907.30796-.3887.70649-.6849 1.1956-.907s1.05068-.3331 1.68471-.3331c.50723 0 .97822.074 1.41302.2036.4347.1295.8152.3331 1.1412.6108.3261.2776.5797.6107.7609.9994.1811.3887.2717.8514.2717 1.3882v5.2935h-2.5542v-4.5532c0-.5552-.1087-.9439-.3261-1.1845s-.52536-.3517-.94201-.3517-.74273.1481-1.01445.4257c-.25362.2777-.38042.7219-.38042 1.3512v4.331h-2.55424v-4.331c0-.6108-.12681-1.055-.38042-1.3512-.25362-.2776-.57969-.4257-.99634-.4257-.39853 0-.72461.1111-.94199.3517-.2355.2406-.34419.6293-.34419 1.1845v4.5532h-2.55424z"/><path d="m15.1084 26.3205c0-.4072.1268-.7589.3985-1.0365.2718-.2776.5978-.4257 1.0145-.4257.3985 0 .7427.1481 1.0144.4257.2718.2776.4167.6293.4167 1.0365s-.1449.7588-.4167 1.0365c-.2717.2776-.6159.4072-1.0144.4072s-.7427-.1296-1.0145-.4072c-.2536-.2962-.3985-.6293-.3985-1.0365zm.1449 3.3686c0-.4257.1268-.7219.3623-.8885.2355-.1665.5616-.2591.9601-.2591.2899 0 .5435.037.779.1111.2355.074.3804.111.4529.1295v8.0328h-2.5543z"/><path d="m20.1621 26.0058c0-.4257.1268-.7218.3623-.8884s.5616-.2591.9601-.2591c.2899 0 .5435.037.779.111.2355.0741.3804.1111.4529.1296v11.6975h-2.5543z"/><path d="m27.3899 36.7964c-.326-.5923-.6521-1.2031-.9601-1.8323-.3079-.6293-.5978-1.2216-.8514-1.7584-.2536-.5367-.471-1.018-.634-1.3881-.1631-.3887-.2717-.6293-.3261-.7404-.0906-.2221-.1811-.4627-.2717-.7218-.1087-.2777-.1449-.5183-.1449-.7219 0-.2961.1087-.5552.326-.7774.2174-.2035.5254-.3146.9601-.3146.3442 0 .616.037.8333.1111.2174.074.3261.111.3623.1295.1812.5368.3623 1.0735.5797 1.6103.1993.5367.3986 1.0365.5797 1.4992.1812.4627.3442.8699.5072 1.2216.145.3516.2537.5923.3261.7403.0725-.148.1631-.3887.308-.7218.1449-.3332.2898-.7219.4529-1.1291.163-.4072.326-.8328.4891-1.24.163-.4072.3079-.7774.4166-1.055.0725-.1666.1268-.3147.2174-.4628.0725-.148.1811-.2591.2898-.3701.1087-.1111.2537-.1851.3986-.2407.163-.0555.3623-.074.5797-.074.2173 0 .3985.0185.5796.074.1631.0371.3261.0926.4529.1481s.2355.1111.308.1481c.0724.0555.1268.074.1449.0925-.0362.2036-.1449.4813-.308.8885-.163.3886-.3441.8514-.5615 1.3511s-.4529 1.0365-.7065 1.5918c-.2536.5552-.5072 1.092-.7427 1.6102-.2355.5183-.471.981-.6884 1.4067-.2174.4072-.3804.7403-.4891.9624h-2.4275z"/><path d="m37.1905 32.9466c0 1.129.4891 1.6843 1.4854 1.6843.9964 0 1.4855-.5553 1.4855-1.6843v-3.2576c0-.4257.1268-.7218.3623-.8884s.5615-.2591.9601-.2591c.2898 0 .5434.037.7789.1111.2355.074.3804.111.4529.1295v4.6457c0 .6108-.1087 1.1291-.308 1.5733-.1992.4442-.4891.8144-.8514 1.1105s-.7789.5182-1.2861.6663c-.4892.1481-1.0326.2221-1.5942.2221-.5797 0-1.105-.074-1.5941-.2221s-.9239-.3702-1.2862-.6663-.634-.6663-.8514-1.1105c-.1993-.4442-.308-.981-.308-1.5733v-3.7388c0-.4257.1268-.7218.3623-.8884s.5616-.2591.9601-.2591c.2899 0 .5435.037.779.1111.2355.074.3804.111.4529.1295z"/><path d="m45.3062 34.2792c.0906.074.2174.1481.4166.2406.1993.0926.4348.1851.7065.2591.2718.0741.5797.1481.9239.2036.3442.0556.7065.0926 1.0869.0926.4348 0 .7609-.037.9782-.1296.2174-.074.3261-.2221.3261-.4257 0-.2221-.0906-.3701-.2717-.4442-.1812-.074-.471-.1481-.8695-.2036l-.8333-.0925c-.4167-.0556-.8152-.1296-1.1956-.2406-.3805-.1111-.7246-.2592-1.0145-.4628-.2898-.2036-.5253-.4627-.6884-.7773-.163-.3147-.2536-.7034-.2536-1.1846 0-.4072.0725-.7774.2174-1.1105.1449-.3332.3623-.6293.6703-.8884.3079-.2592.7065-.4628 1.1775-.5923.4709-.1481 1.0506-.2221 1.7028-.2221.6702 0 1.2318.037 1.7209.1295.4891.0926.8877.2221 1.25.4072.1992.1111.3623.2406.4891.3887s.1811.3517.1811.5738c0 .1666-.0362.3331-.1087.4627-.0724.1296-.1449.2591-.2355.3517-.0905.0925-.1811.1666-.2536.2221-.0724.0555-.1268.0925-.1449.0925-.0362-.037-.1268-.0925-.2536-.1851-.1449-.0925-.3261-.1665-.5797-.2591-.2355-.074-.5253-.1481-.8514-.2221s-.7065-.0925-1.1413-.0925c-.471 0-.8151.0555-.9963.1665-.1811.1111-.2717.2592-.2717.4442 0 .1851.0906.3147.2536.3887.163.0741.4166.1481.7608.2036l1.4492.2036c.3623.0556.7065.1296 1.0326.2406.3261.1111.634.2592.8877.4442.2536.2036.4709.4443.6159.7404.1449.2961.2355.6663.2355 1.1105 0 .907-.3442 1.6103-1.0145 2.1285-.6702.4998-1.6122.7589-2.8078.7589-.616 0-1.1775-.037-1.6666-.1296-.4891-.0925-.8877-.1851-1.25-.2961-.3442-.1111-.634-.2406-.8514-.3517-.2174-.1295-.3623-.2221-.4529-.2776z"/></g></svg>

<svg width="53" height="37" viewBox="0 0 53 37" fill="none" xmlns="http://www.w3.org/2000/svg">
<path d="M32.1195 2.94877C28.202 -0.982925 21.8495 -0.982925 17.932 2.94877L11.529 9.37485C11.1505 9.75513 11.1505 10.3674 11.529 10.7477L17.932 17.1738C21.8495 21.1055 28.202 21.1055 32.1195 17.1802C36.0433 13.255 36.0433 6.88047 32.1195 2.94877ZM30.6055 15.2917C27.7288 18.1793 23.0607 18.1793 20.1841 15.2917L15.4717 10.5672C15.1941 10.2901 15.1941 9.83892 15.4717 9.55532L20.1777 4.83728C23.0544 1.94974 27.7225 1.94974 30.5991 4.83728C33.4821 7.72482 33.4821 12.4042 30.6055 15.2917Z" fill="#12C3F4"/>
<path d="M40.5093 9.3813L37.6895 6.5002C37.5192 6.32617 37.2353 6.48731 37.2921 6.72579C37.7778 8.92367 37.7778 11.2182 37.2921 13.4161C37.2416 13.6546 37.5255 13.8093 37.6895 13.6417L40.5093 10.7606C40.8815 10.3739 40.8815 9.76157 40.5093 9.3813Z" fill="#12C3F4"/>
<path d="M25.4263 15.1177C28.1542 15.1177 30.3657 12.8582 30.3657 10.071C30.3657 7.28374 28.1542 5.02423 25.4263 5.02423C22.6983 5.02423 20.4868 7.28374 20.4868 10.071C20.4868 12.8582 22.6983 15.1177 25.4263 15.1177Z" fill="#12C3F4"/>
<path d="M0 31.5029C0 30.9661 0.0905757 30.5034 0.271728 30.1147C0.45288 29.726 0.706492 29.3929 1.03257 29.1153C1.35864 28.8376 1.73906 28.634 2.17382 28.5045C2.60859 28.3749 3.0977 28.3009 3.60492 28.3009C4.23895 28.3009 4.80053 28.4119 5.30775 28.634C5.79686 28.8561 6.21351 29.1523 6.52147 29.541C6.82943 29.1523 7.22796 28.8561 7.71707 28.634C8.20618 28.4119 8.76775 28.3009 9.40178 28.3009C9.90901 28.3009 10.38 28.3749 10.8148 28.5045C11.2495 28.634 11.63 28.8376 11.956 29.1153C12.2821 29.3929 12.5357 29.726 12.7169 30.1147C12.898 30.5034 12.9886 30.9661 12.9886 31.5029V36.7964H10.4344V32.2432C10.4344 31.688 10.3257 31.2993 10.1083 31.0587C9.8909 30.8181 9.58294 30.707 9.16629 30.707C8.74964 30.707 8.42356 30.8551 8.15184 31.1327C7.89822 31.4104 7.77142 31.8546 7.77142 32.4839V36.8149H5.21718V32.4839C5.21718 31.8731 5.09037 31.4289 4.83676 31.1327C4.58314 30.8551 4.25707 30.707 3.84042 30.707C3.44189 30.707 3.11581 30.8181 2.89843 31.0587C2.66293 31.2993 2.55424 31.688 2.55424 32.2432V36.7964H0V31.5029Z" fill="#12C3F4"/>
<path d="M15.1084 26.3205C15.1084 25.9133 15.2352 25.5616 15.5069 25.284C15.7787 25.0064 16.1047 24.8583 16.5214 24.8583C16.9199 24.8583 17.2641 25.0064 17.5358 25.284C17.8076 25.5616 17.9525 25.9133 17.9525 26.3205C17.9525 26.7277 17.8076 27.0793 17.5358 27.357C17.2641 27.6346 16.9199 27.7642 16.5214 27.7642C16.1229 27.7642 15.7787 27.6346 15.5069 27.357C15.2533 27.0608 15.1084 26.7277 15.1084 26.3205ZM15.2533 29.6891C15.2533 29.2634 15.3801 28.9672 15.6156 28.8006C15.8511 28.6341 16.1772 28.5415 16.5757 28.5415C16.8656 28.5415 17.1192 28.5785 17.3547 28.6526C17.5902 28.7266 17.7351 28.7636 17.8076 28.7821V36.8149H15.2533V29.6891Z" fill="#12C3F4"/>
<path d="M20.1621 26.0058C20.1621 25.5801 20.2889 25.284 20.5244 25.1174C20.7599 24.9508 21.086 24.8583 21.4845 24.8583C21.7744 24.8583 22.028 24.8953 22.2635 24.9693C22.499 25.0434 22.6439 25.0804 22.7164 25.0989V36.7964H20.1621V26.0058Z" fill="#12C3F4"/>
<path d="M27.3899 36.7964C27.0639 36.2041 26.7378 35.5933 26.4298 34.9641C26.1219 34.3348 25.832 33.7425 25.5784 33.2057C25.3248 32.669 25.1074 32.1877 24.9444 31.8176C24.7813 31.4289 24.6727 31.1883 24.6183 31.0772C24.5277 30.8551 24.4372 30.6145 24.3466 30.3554C24.2379 30.0777 24.2017 29.8371 24.2017 29.6335C24.2017 29.3374 24.3104 29.0783 24.5277 28.8561C24.7451 28.6526 25.0531 28.5415 25.4878 28.5415C25.832 28.5415 26.1038 28.5785 26.3211 28.6526C26.5385 28.7266 26.6472 28.7636 26.6834 28.7821C26.8646 29.3189 27.0457 29.8556 27.2631 30.3924C27.4624 30.9291 27.6617 31.4289 27.8428 31.8916C28.024 32.3543 28.187 32.7615 28.35 33.1132C28.495 33.4648 28.6037 33.7055 28.6761 33.8535C28.7486 33.7055 28.8392 33.4648 28.9841 33.1317C29.129 32.7985 29.2739 32.4098 29.437 32.0026C29.6 31.5954 29.763 31.1698 29.9261 30.7626C30.0891 30.3554 30.234 29.9852 30.3427 29.7076C30.4152 29.541 30.4695 29.3929 30.5601 29.2448C30.6326 29.0968 30.7412 28.9857 30.8499 28.8747C30.9586 28.7636 31.1036 28.6896 31.2485 28.634C31.4115 28.5785 31.6108 28.56 31.8282 28.56C32.0455 28.56 32.2267 28.5785 32.4078 28.634C32.5709 28.6711 32.7339 28.7266 32.8607 28.7821C32.9875 28.8376 33.0962 28.8932 33.1687 28.9302C33.2411 28.9857 33.2955 29.0042 33.3136 29.0227C33.2774 29.2263 33.1687 29.504 33.0056 29.9112C32.8426 30.2998 32.6615 30.7626 32.4441 31.2623C32.2267 31.762 31.9912 32.2988 31.7376 32.8541C31.484 33.4093 31.2304 33.9461 30.9949 34.4643C30.7594 34.9826 30.5239 35.4453 30.3065 35.871C30.0891 36.2782 29.9261 36.6113 29.8174 36.8334H27.3899V36.7964Z" fill="#12C3F4"/>
<path d="M37.1905 32.9466C37.1905 34.0756 37.6796 34.6309 38.6759 34.6309C39.6723 34.6309 40.1614 34.0756 40.1614 32.9466V29.689C40.1614 29.2633 40.2882 28.9672 40.5237 28.8006C40.7592 28.634 41.0852 28.5415 41.4838 28.5415C41.7736 28.5415 42.0272 28.5785 42.2627 28.6526C42.4982 28.7266 42.6431 28.7636 42.7156 28.7821V33.4278C42.7156 34.0386 42.6069 34.5569 42.4076 35.0011C42.2084 35.4453 41.9185 35.8155 41.5562 36.1116C41.1939 36.4077 40.7773 36.6298 40.2701 36.7779C39.7809 36.926 39.2375 37 38.6759 37C38.0962 37 37.5709 36.926 37.0818 36.7779C36.5927 36.6298 36.1579 36.4077 35.7956 36.1116C35.4333 35.8155 35.1616 35.4453 34.9442 35.0011C34.7449 34.5569 34.6362 34.0201 34.6362 33.4278V29.689C34.6362 29.2633 34.763 28.9672 34.9985 28.8006C35.234 28.634 35.5601 28.5415 35.9586 28.5415C36.2485 28.5415 36.5021 28.5785 36.7376 28.6526C36.9731 28.7266 37.118 28.7636 37.1905 28.7821V32.9466Z" fill="#12C3F4"/>
<path d="M45.3062 34.2792C45.3968 34.3532 45.5236 34.4273 45.7228 34.5198C45.9221 34.6124 46.1576 34.7049 46.4293 34.7789C46.7011 34.853 47.009 34.927 47.3532 34.9825C47.6974 35.0381 48.0597 35.0751 48.4401 35.0751C48.8749 35.0751 49.201 35.0381 49.4183 34.9455C49.6357 34.8715 49.7444 34.7234 49.7444 34.5198C49.7444 34.2977 49.6538 34.1497 49.4727 34.0756C49.2915 34.0016 49.0017 33.9275 48.6032 33.872L47.7699 33.7795C47.3532 33.7239 46.9547 33.6499 46.5743 33.5389C46.1938 33.4278 45.8497 33.2797 45.5598 33.0761C45.27 32.8725 45.0345 32.6134 44.8714 32.2988C44.7084 31.9841 44.6178 31.5954 44.6178 31.1142C44.6178 30.707 44.6903 30.3368 44.8352 30.0037C44.9801 29.6705 45.1975 29.3744 45.5055 29.1153C45.8134 28.8561 46.212 28.6525 46.683 28.523C47.1539 28.3749 47.7336 28.3009 48.3858 28.3009C49.056 28.3009 49.6176 28.3379 50.1067 28.4304C50.5958 28.523 50.9944 28.6525 51.3567 28.8376C51.5559 28.9487 51.719 29.0782 51.8458 29.2263C51.9726 29.3744 52.0269 29.578 52.0269 29.8001C52.0269 29.9667 51.9907 30.1332 51.9182 30.2628C51.8458 30.3924 51.7733 30.5219 51.6827 30.6145C51.5922 30.707 51.5016 30.7811 51.4291 30.8366C51.3567 30.8921 51.3023 30.9291 51.2842 30.9291C51.248 30.8921 51.1574 30.8366 51.0306 30.744C50.8857 30.6515 50.7045 30.5775 50.4509 30.4849C50.2154 30.4109 49.9256 30.3368 49.5995 30.2628C49.2734 30.1888 48.893 30.1703 48.4582 30.1703C47.9872 30.1703 47.6431 30.2258 47.4619 30.3368C47.2808 30.4479 47.1902 30.596 47.1902 30.781C47.1902 30.9661 47.2808 31.0957 47.4438 31.1697C47.6068 31.2438 47.8604 31.3178 48.2046 31.3733L49.6538 31.5769C50.0161 31.6325 50.3603 31.7065 50.6864 31.8175C51.0125 31.9286 51.3204 32.0767 51.5741 32.2617C51.8277 32.4653 52.045 32.706 52.19 33.0021C52.3349 33.2982 52.4255 33.6684 52.4255 34.1126C52.4255 35.0196 52.0813 35.7229 51.411 36.2411C50.7408 36.7409 49.7988 37 48.6032 37C47.9872 37 47.4257 36.963 46.9366 36.8704C46.4475 36.7779 46.0489 36.6853 45.6866 36.5743C45.3424 36.4632 45.0526 36.3337 44.8352 36.2226C44.6178 36.0931 44.4729 36.0005 44.3823 35.945L45.3062 34.2792Z" fill="#12C3F4"/>
</svg>
